assets/images/icon/kaggle.svg

<?xml version="1.0" encoding="UTF-8" standalone="no" ?>
<!DOCTYPE svg PUBLIC "-//W3C//DTD SVG 1.1//EN" "http://www.w3.org/Graphics/SVG/1.1/DTD/svg11.dtd">
<svg xmlns="http://www.w3.org/2000/svg" xmlns:xlink="http://www.w3.org/1999/xlink" version="1.1" width="1080" height="1080" viewBox="0 0 1080 1080" xml:space="preserve">
<desc>Created with Fabric.js 5.2.4</desc>
<defs>
</defs>
<g transform="matrix(1 0 0 1 540 540)" id="71e40951-0743-4362-937e-6d089e70a134"  >
<rect style="stroke: none; stroke-width: 1; stroke-dasharray: none; stroke-linecap: butt; stroke-dashoffset: 0; stroke-linejoin: miter; stroke-miterlimit: 4; fill: rgb(255,255,255); fill-rule: nonzero; opacity: 1; visibility: hidden;" vector-effect="non-scaling-stroke"  x="-540" y="-540" rx="0" ry="0" width="1080" height="1080" />
</g>
<g transform="matrix(1 0 0 1 540 540)" id="d2174f67-e1a3-4ba5-ac13-591f0d606f6c"  >
</g>
<g transform="matrix(1 0 0 1 540 540)" id="5e87374b-9c5e-4fdc-a05f-3cb2f6cad337"  >
<path style="stroke: rgb(0,0,0); stroke-width: 0; stroke-dasharray: none; stroke-linecap: butt; stroke-dashoffset: 0; stroke-linejoin: miter; stroke-miterlimit: 4; fill: rgb(70,73,78); fill-rule: nonzero; opacity: 1;" vector-effect="non-scaling-stroke"  transform=" translate(-159.8, -256.05)" d="M 304.2 501.5 L 158.4 320.3 L 298.2 185 C 300.8 182.3 299.9 174.5 292.9 174.5 L 223.7 174.5 C 220.2 174.5 216.7 176.3 213.2 179.8 L 80.9 313.5 L 80.9 7.5 Q 80.9 0 73.4 0 L 21.5 0 Q 14 0 14 7.5 L 14 504.5 Q 14 512 21.5 512 L 73.4 512 Q 80.9 512 80.9 504.5 L 80.9 395.5 L 111.7 366.2 L 222.2 506.79999999999995 C 225.2 510.29999999999995 228.7 512.0999999999999 232.7 512.0999999999999 L 299.6 512.0999999999999 Q 304.85 512.0999999999999 305.6 509.0999999999999 z" stroke-linecap="round" />
</g>
<g transform="matrix(NaN NaN NaN NaN 0 0)"  >
<g style=""   >
</g>
</g>
<g transform="matrix(NaN NaN NaN NaN 0 0)"  >
<g style=""   >
</g>
</g>
<g transform="matrix(NaN NaN NaN NaN 0 0)"  >
<g style=""   >
</g>
</g>
<g transform="matrix(NaN NaN NaN NaN 0 0)"  >
<g style=""   >
</g>
</g>
<g transform="matrix(NaN NaN NaN NaN 0 0)"  >
<g style=""   >
</g>
</g>
</svg>

<svg xmlns="http://www.w3.org/2000/svg" viewBox="0 0 320 512"><!--! Font Awesome Pro 6.2.1 by @fontawesome - https://fontawesome.com License - https://fontawesome.com/license (Commercial License) Copyright 2022 Fonticons, Inc. --><path d="M304.2 501.5L158.4 320.3 298.2 185c2.6-2.7 1.7-10.5-5.3-10.5h-69.2c-3.5 0-7 1.8-10.5 5.3L80.9 313.5V7.5q0-7.5-7.5-7.5H21.5Q14 0 14 7.5v497q0 7.5 7.5 7.5h51.9q7.5 0 7.5-7.5v-109l30.8-29.3 110.5 140.6c3 3.5 6.5 5.3 10.5 5.3h66.9q5.25 0 6-3z"/></svg>
